source/img/about-us/smm-element-3.svg

<svg width="100" height="100" viewBox="0 0 100 100" fill="none" xmlns="http://www.w3.org/2000/svg">
<g clip-path="url(#clip0)">
<path d="M71.1139 38.5012V61.5901C71.1139 64.2935 70.0411 66.8861 68.1315 68.7977C66.2218 70.7093 63.6318 71.7832 60.9312 71.7832H37.8703C35.1696 71.7832 32.5796 70.7093 30.67 68.7977C28.7603 66.8861 27.6875 64.2935 27.6875 61.5901V38.5012C27.6875 35.7978 28.7603 33.2052 30.67 31.2936C32.5796 29.382 35.1696 28.3081 37.8703 28.3081H60.9358C63.6364 28.3081 66.2265 29.382 68.1361 31.2936C70.0457 33.2052 71.1186 35.7978 71.1186 38.5012H71.1139Z" fill="#5181B8"/>
<path fill-rule="evenodd" clip-rule="evenodd" d="M48.858 59.5815H50.8864C50.8864 59.5815 51.499 59.5135 51.8118 59.1721C52.0997 58.8587 52.0905 58.2702 52.0905 58.2702C52.0905 58.2702 52.0509 55.5151 53.3141 55.1094C54.5592 54.7097 56.1582 57.7721 57.853 58.9497C59.1346 59.8408 60.1084 59.6454 60.1084 59.6454L64.64 59.5815C64.64 59.5815 67.0106 59.4337 65.8866 57.5469C65.7944 57.3925 65.232 56.1512 62.5173 53.6003C59.6759 50.9305 60.0564 51.3623 63.4791 46.7442C65.5637 43.9317 66.397 42.2146 66.1367 41.4792C65.8884 40.7788 64.3553 40.9639 64.3553 40.9639L59.253 40.9961C59.253 40.9961 58.8748 40.9439 58.5942 41.1136C58.3201 41.2801 58.1437 41.6681 58.1437 41.6681C58.1437 41.6681 57.3361 43.8445 56.2591 45.6954C53.9871 49.601 53.0787 49.8071 52.7074 49.5646C51.8436 48.9994 52.0592 47.294 52.0592 46.0824C52.0592 42.2976 52.6263 40.7196 50.955 40.311C50.4004 40.1753 49.9922 40.0858 48.5738 40.0713C46.7533 40.0522 45.2123 40.0769 44.3398 40.5097C43.7594 40.7974 43.3116 41.4387 43.5843 41.4755C43.9215 41.5212 44.6853 41.6839 45.0902 42.2422C45.6131 42.9622 45.5947 44.5794 45.5947 44.5794C45.5947 44.5794 45.895 49.0348 44.8931 49.5884C44.2053 49.968 43.2619 49.1929 41.2363 45.6497C40.1984 43.8347 39.4148 41.8285 39.4148 41.8285C39.4148 41.8285 39.2637 41.4536 38.9942 41.253C38.6672 41.0101 38.2102 40.9327 38.2102 40.9327L33.3617 40.9649C33.3617 40.9649 32.6338 40.9854 32.3666 41.3057C32.1289 41.5907 32.3477 42.1801 32.3477 42.1801C32.3477 42.1801 36.1436 51.1702 40.4417 55.7007C44.3827 59.8543 48.858 59.5815 48.858 59.5815Z" fill="white"/>
<path d="M93.3987 50.0144C93.3987 74.856 73.6275 94.9862 49.2482 94.9862C24.8688 94.9862 5.09766 74.856 5.09766 50.0144C5.09766 25.1727 24.8688 5.04248 49.2482 5.04248C73.6275 5.04248 93.3987 25.1727 93.3987 50.0144Z" fill="#FFC9E7" fill-opacity="0.3" stroke="#E4829E" stroke-width="0.5"/>
<g filter="url(#filter0_f)">
<path d="M29.2782 22.4604C35.6763 19.5492 35.6369 16.6127 35.1198 15.3188C33.5688 13.5722 32.256 14.1035 30.4667 14.5425C28.1196 15.1184 24.7022 18.2889 21.742 21.1411C18.8659 23.9124 14.2288 30.2832 14.153 32.9339C14.0861 35.27 15.3414 37.0489 15.923 35.1081C16.5046 33.1674 21.9816 25.7804 29.2782 22.4604Z" fill="white"/>
</g>
<path d="M31.3246 88.9556C51.7976 95.1555 89.8207 86.3318 90.0173 42.0569C95.7528 65.7552 73.5278 104.201 31.3246 88.9556Z" fill="#FFCBE8"/>
</g>
<defs>
<filter id="filter0_f" x="13.1504" y="13.1084" width="23.178" height="23.8275" filterUnits="userSpaceOnUse" color-interpolation-filters="sRGB">
<feFlood flood-opacity="0" result="BackgroundImageFix"/>
<feBlend mode="normal" in="SourceGraphic" in2="BackgroundImageFix" result="shape"/>
<feGaussianBlur stdDeviation="0.5" result="effect1_foregroundBlur"/>
</filter>
<clipPath id="clip0">
<rect width="100" height="100" fill="white"/>
</clipPath>
</defs>
</svg>

<svg width="100" height="100" fill="none" xmlns="http://www.w3.org/2000/svg"><g clip-path="url(#clip0)"><path d="M71.114 38.501v23.09a10.2 10.2 0 01-2.983 7.207 10.178 10.178 0 01-7.2 2.985h-23.06a10.181 10.181 0 01-7.201-2.985 10.198 10.198 0 01-2.983-7.208V38.501c0-2.703 1.073-5.296 2.983-7.207a10.177 10.177 0 017.2-2.986h23.066c2.7 0 5.29 1.074 7.2 2.986A10.199 10.199 0 0171.12 38.5h-.005z" fill="#5181B8"/><path fill-rule="evenodd" clip-rule="evenodd" d="M48.858 59.581h2.028s.613-.068.926-.409c.288-.313.279-.902.279-.902s-.04-2.755 1.223-3.16c1.245-.4 2.844 2.662 4.539 3.84 1.282.89 2.255.695 2.255.695l4.532-.064s2.37-.147 1.247-2.034c-.093-.154-.655-1.396-3.37-3.947-2.841-2.67-2.46-2.238.962-6.856 2.085-2.812 2.918-4.53 2.658-5.265-.249-.7-1.782-.515-1.782-.515l-5.102.032s-.378-.052-.659.118c-.274.166-.45.554-.45.554s-.808 2.176-1.885 4.027c-2.272 3.906-3.18 4.112-3.552 3.87-.863-.566-.648-2.271-.648-3.483 0-3.784.567-5.362-1.104-5.771-.555-.136-.963-.225-2.381-.24-1.82-.019-3.362.006-4.234.439-.58.287-1.028.929-.756.965.337.046 1.101.209 1.506.767.523.72.505 2.337.505 2.337s.3 4.456-.702 5.01c-.688.379-1.631-.396-3.657-3.94-1.038-1.814-1.821-3.82-1.821-3.82s-.151-.375-.42-.576c-.328-.243-.785-.32-.785-.32l-4.848.032s-.728.02-.995.34c-.238.286-.02.875-.02.875s3.797 8.99 8.095 13.52c3.94 4.154 8.416 3.881 8.416 3.881z" fill="#fff"/><path d="M93.399 50.014c0 24.842-19.772 44.972-44.15 44.972-24.38 0-44.151-20.13-44.151-44.972 0-24.841 19.77-44.972 44.15-44.972s44.15 20.13 44.15 44.972z" fill="#FFC9E7" fill-opacity=".3" stroke="#E4829E" stroke-width=".5"/><g filter="url(#filter0_f)"><path d="M29.278 22.46c6.398-2.91 6.359-5.847 5.842-7.141-1.551-1.747-2.864-1.216-4.653-.777-2.347.576-5.765 3.747-8.725 6.6-2.876 2.77-7.513 9.141-7.589 11.792-.067 2.336 1.188 4.115 1.77 2.174.582-1.94 6.059-9.328 13.355-12.648z" fill="#fff"/></g><path d="M31.325 88.956c20.473 6.2 58.496-2.624 58.692-46.9 5.736 23.7-16.49 62.145-58.692 46.9z" fill="#FFCBE8"/></g><defs><clipPath id="clip0"><path fill="#fff" d="M0 0h100v100H0z"/></clipPath><filter id="filter0_f" x="13.15" y="13.108" width="23.178" height="23.828" filterUnits="userSpaceOnUse" color-interpolation-filters="sRGB"><feFlood flood-opacity="0" result="BackgroundImageFix"/><feBlend in="SourceGraphic" in2="BackgroundImageFix" result="shape"/><feGaussianBlur stdDeviation=".5" result="effect1_foregroundBlur"/></filter></defs></svg>
